X:77
T:St. Patrick Was a Cajun
R:waltz
C: 1995, 2010 L.E. McCullough  
M:3/4
L:1/8
K:A
AB|:c3e fe|cB A2 ae|f3a fe|
[1 c4 AB|c3e fe|cB A2 EF|=G3A GF|E4 AB:|
[2 f4 eB|c3e fe|cB A2 ef|=gf ed Bc|A4 ce|]
|: f3a fe|fe ce fa|b3c' ba|fa fe ce|
[1 f3a fe|fe cB AF|BA FA FE|F4 ce:|
[2 f3a ba|c'b a2 fa|b3c' ba|b3a fe|]
W:*Repeat A Section both times
W:
W:
W:
W:
<end>
<start>
